!!!!SEGMENT: pl-gd--ee-2628--007-012_stabile-annibale--sacrarum-modulationum-tollite-iugum-meum-a-6.krn
!!!cenid: 15xx:1101
!!!COM: Stabile, Annibale
!!!COM-rismID: pe30009662
!!!CDT: ~1535-1595/04
!!!CNT: Italian
!!!GTL: Sacrarum modulationum
!!!OTL: Tollite iugum meum a 6
!!!OMV: 012
!!!PDT: 1585
!!!AGN:
!!!YEC: Copyright 2022 Narodowy Instytut Fryderyka Chopina (https://polishscores.org)
!!!YEM: License CC-BY-4.0 (https://creativecommons.org/licenses/by/4.0)
!!!SMS-siglum: PL-GD
!!!SMS-shelfmark: Ee 2628
!!!SMS-shelfwork: 007-012 G
!!!SMS-variant:
!!!SMS-altvar:
!!!NIFC-rismSourceID: 1001203361
!!!NIFC-rismChildID: 990060529
!!!NIFC-islandoraID: pl-gd:66139
!!!URL-pdf-islandora: https://repozytorium.nifc.pl/islandora/object/pl-gd%3A66139/datastream/PDF/view
!!!URL-scan: https://polish.musicsources.pl/pl/lokalizacje/galeria/klocki-introligatorskie/673 @EN{Scan on Polish Music Sources Website} @PL{Skany w portalu Dziedzictwo Muzyki Polskiej w otwartym dostępie}
!!!IIIF:
!!!ONB-nifc: UWAGA: Cantus: s. 102-113, Tenore: s. 258-269, Basso: s. 414-425, Quinto: s. 736-747, Sextus: s. 624-632. Dla głosu Alto proszę skorzystać z https://pbc.gda.pl/dlibra/publication/87583/edition/79412/content, s. 25-48. Uwaga: utwory podzielone wg spisu treści dostępnych na końcu ksiąg – proszę sprawdzać sąsiednie tytuły i zwracać uwagę na liczbę głosów. Głosy Quinto i Sextus proszę umieszczać wg ambitusu (może się różnić w zależności od utworu).
!!!AIN: 2 alto 1 bass 1 soprn 1 tenor 1 vox
!!!key: g
**kern	**text	**kern	**text	**kern	**text	**kern	**text	**kern	**text	**kern	**text
*part6	*	*part5	*	*part4	*	*part3	*	*part2	*	*part1	*
*staff6	*	*staff5	*	*staff4	*	*staff3	*	*staff2	*	*staff1	*
*I"BASSVS	*	*I"TENOR	*	*I"SEXTVS	*	*I"ALTVS Secundus	*	*I"ALTVS	*	*I"CANTVS	*
*I'B	*	*I'T	*	*I'V 6	*	*I'A 2	*	*I'A	*	*I'S	*
*ICvox	*	*ICvox	*	*ICvox	*	*ICvox	*	*ICvox	*	*ICvox	*
*Ibass	*	*Itenor	*	*Ivox	*	*Ialto	*	*Ialto	*	*Isoprn	*
*clefF3	*	*clefC3	*	*clefC3	*	*clefC2	*	*clefC2	*	*clefG2	*
*k[b-]	*	*k[b-]	*	*k[b-]	*	*k[b-]	*	*k[b-]	*	*k[b-]	*
*g:	*	*g:	*	*g:	*	*g:	*	*g:	*	*g:	*
*M2/1	*	*M2/1	*	*M2/1	*	*M2/1	*	*M2/1	*	*M2/1	*
*met(C)	*	*met(C)	*	*met(C)	*	*met(C)	*	*met(C)	*	*met(C)	*
=1-	=1-	=1-	=1-	=1-	=1-	=1-	=1-	=1-	=1-	=1-	=1-
!	!	!	!	!	!	!LO:TX:a:i:t=Cantabilis&colon; lætus duo tempora muta ſilebis ſemper per medium, ſub Dyapenthe veni.	!	!	!	!	!
!	!	!LO:TX:b:i:t=TOllite iugum meum.	!	!	!	!LO:TX:a:i:t=Canon. Sex vocum.	!	!	!	!	!
!LO:TX:t=P:problem:podwójnie zapisany znak przykluczowy: BB- B-	!	!	!	!	!	!LO:TX:t=P:problem:podwójnie zapisany znak przykluczowy: B- b-	!	!LO:TX:t=P:problem:podwójnie zapisany znak przykluczowy: B- b-	!	!	!
!LO:TX:a:i:t=Sex vocum.	!	!LO:TX:a:i:t=Sex vocum.	!	!LO:TX:a:i:t=Sex vocum.	!	!LO:TX:b:i:t=TOllite iugum meum.	!	!LO:TX:a:i:t=Sex vocum.	!	!LO:TX:a:i:t=Sex vocum.	!
00r	.	00r	.	00r	.	00r	.	1r	.	1.dd	TOl-
.	.	.	.	.	.	.	.	1.g	TOl-	.	.
.	.	.	.	.	.	.	.	.	.	2dd\	-li-
=2-	=2-	=2-	=2-	=2-	=2-	=2-	=2-	=2-	=2-	=2-	=2-
!	!	!LO:TX:a:i:t=Reſolutio.	!	!	!	!	!	!	!	!	!
.	.	.	.	.	.	.	.	.	.	1b-	-te
.	.	.	.	.	.	.	.	2g\	-li-	.	.
.	.	.	.	.	.	.	.	1f	-te	2.cc\	iu-
.	.	.	.	.	.	.	.	.	.	4dd\	.
=3-	=3-	=3-	=3-	=3-	=3-	=3-	=3-	=3-	=3-	=3-	=3-
00r	.	00r	.	0r	.	00r	.	2.g\	iu-	2ee-X\	.
.	.	.	.	.	.	.	.	.	.	4dd\	.
.	.	.	.	.	.	.	.	4a\	.	4cc\	.
.	.	.	.	.	.	.	.	2b-\	.	2dd\	.
.	.	.	.	.	.	.	.	1a\	-gum	2cc\	-gum
=4-	=4-	=4-	=4-	=4-	=4-	=4-	=4-	=4-	=4-	=4-	=4-
*	*	*	*	*	*	*	*	*	*	*lig	*
.	.	.	.	1r	.	.	.	.	me-	1b-	me-
.	.	.	.	.	.	.	.	2.g\	.	.	.
.	.	.	.	1.d	TOl-	.	.	.	.	1a	.
.	.	.	.	.	.	.	.	4f#X\	.	.	.
.	.	.	.	.	.	.	.	2f#\	.	.	.
*	*	*	*	*	*	*	*	*	*	*Xlig	*
=5-	=5-	=5-	=5-	=5-	=5-	=5-	=5-	=5-	=5-	=5-	=5-
1.G	Tol-	00r	.	.	.	00r	.	2.g\	-um	1b-	-um
.	.	.	.	2d\	-li-	.	.	.	.	.	.
.	.	.	.	.	.	.	.	8fny\	.	.	.
.	.	.	.	.	.	.	.	8e\	.	.	.
*	*	*	*	*	*	*	*	*custos:d	*	*	*
!	!	!	!	!	!	!	!	!LO:LB:g=original	!	!	!
.	.	.	.	1B-	-te	.	.	4d/	.	2g/	ſu-
.	.	.	.	.	.	.	.	4c/	.	.	.
*	*	*	*	*	*	*	*	*	*	*lig	*
2G\	-li-	.	.	.	.	.	.	4d/	.	1b-/	-per
.	.	.	.	.	.	.	.	4e/	.	.	.
=6-	=6-	=6-	=6-	=6-	=6-	=6-	=6-	=6-	=6-	=6-	=6-
1F	-te	.	.	2.c/	iu-	.	.	1f	.	.	.
*	*	*	*	*	*	*	*	*	*	*col	*
.	.	.	.	.	.	.	.	.	.	2.a/	.
.	.	.	.	4d\	.	.	.	.	.	.	.
2.G\	iu-	.	.	2e-X\	.	.	.	1.B-	ſu-	.	.
*	*	*	*	*	*	*	*	*	*	*Xlig	*
.	.	.	.	.	.	.	.	.	.	4g/	.
*	*	*	*	*	*	*	*	*	*	*Xcol	*
.	.	.	.	4d\	.	.	.	.	.	1g/	.
4A\	.	.	.	4c/	.	.	.	.	.	.	.
=7-	=7-	=7-	=7-	=7-	=7-	=7-	=7-	=7-	=7-	=7-	=7-
2B-\	.	00r	.	2d\	.	0r	.	.	.	.	.
2A\	-gum	.	.	2c/	-gum	.	.	2c/	-per	2f/	.
*	*	*	*	*	*	*	*	*	*	*custos:g	*
!	!	!	!	!	!	!	!	!	!	!LO:LB:g=original	!
*	*	*	*	*	*	*	*	*	*	*lig	*
1G	me-	.	.	1B-	me-	.	.	2d/	vos	1g	.
.	.	.	.	.	.	.	.	1g\	Tol-	.	.
=8-	=8-	=8-	=8-	=8-	=8-	=8-	=8-	=8-	=8-	=8-	=8-
*	*	*	*	*	*	*lig	*	*	*	*	*
1D	-um	.	.	1A	-um	0d	Vos	.	.	1a	.
.	.	.	.	.	.	.	.	2f\	-li-	.	.
*	*	*	*	*	*ij	*	*	*	*	*Xlig	*
2.G\	ſu-	.	.	2r	.	.	.	1g	-te	1b-	vos
.	.	.	.	1d\	Tol-	.	.	.	.	.	.
8F/	.	.	.	.	.	.	.	.	.	.	.
8E/	.	.	.	.	.	.	.	.	.	.	.
=9-	=9-	=9-	=9-	=9-	=9-	=9-	=9-	=9-	=9-	=9-	=9-
4D/	.	00r	.	.	.	0a	.	1f	iu-	0r	.
4E/	.	.	.	.	.	.	.	.	.	.	.
4F/	.	.	.	2d\	-li-	.	.	.	.	.	.
4G\	.	.	.	.	.	.	.	.	.	.	.
*custos:A	*	*	*	*custos:d	*	*	*	*	*	*	*
!LO:LB:g=original	!	!	!	!LO:LB:g=original	!	!	!	!	!	!	!
2A\	.	.	.	1c	-te	.	.	1e	-gum	.	.
2A\	-per	.	.	.	.	.	.	.	.	.	.
*	*	*	*	*	*	*Xlig	*	*	*	*	*
=10-	=10-	=10-	=10-	=10-	=10-	=10-	=10-	=10-	=10-	=10-	=10-
*	*	*	*	*	*	*lig	*	*	*	*	*
0D	vos	.	.	2.d\	iu-	0a	a-	2f\	me-	2r	.
.	.	.	.	.	.	.	.	2.d/	-um	1ff	Di-
.	.	.	.	4eny\	.	.	.	.	.	.	.
.	.	.	.	2f\	.	.	.	.	.	.	.
.	.	.	.	.	.	.	.	4e/	.	.	.
.	.	.	.	2d\	-gum	.	.	4f\	.	2ff\	-cit
.	.	.	.	.	.	.	.	4d/	.	.	.
*	*	*	*	*	*	*	*	*custos:g	*	*	*
!	!	!	!	!	!	!	!	!LO:LB:g=original	!	!	!
=11-	=11-	=11-	=11-	=11-	=11-	=11-	=11-	=11-	=11-	=11-	=11-
*	*	*	*	*lig	*	*	*	*	*	*	*
0r	.	00r	.	0c	me-	0cc	.	2g\	.	1.ee-X	Do-
.	.	.	.	.	.	.	.	2.a\	ſu-	.	.
.	.	.	.	.	.	.	.	4g\	.	.	.
.	.	.	.	.	.	.	.	1g\	.	2ee-\	-mi-
*	*	*	*	*	*	*Xlig	*	*	*	*	*
=12-	=12-	=12-	=12-	=12-	=12-	=12-	=12-	=12-	=12-	=12-	=12-
1.D	Di-	.	.	0.d	.	0a	-mi-	.	.	00dd	-nus
.	.	.	.	.	.	.	.	4f\	.	.	.
.	.	.	.	.	.	.	.	4e/	.	.	.
.	.	.	.	.	.	.	.	2.f\	.	.	.
2D/	-cit	.	.	.	.	.	.	.	.	.	.
.	.	.	.	.	.	.	.	8g\	.	.	.
.	.	.	.	.	.	.	.	8a\	.	.	.
*	*	*	*	*Xlig	*	*	*	*	*	*	*
=13-	=13-	=13-	=13-	=13-	=13-	=13-	=13-	=13-	=13-	=13-	=13-
*	*	*lig	*	*	*	*	*	*	*	*	*
!	!	!	!	!	!	!LO:TX:t=P:problem:znak rozpoczęcia kanonu - wskazuje, że w tym miejscu wchodzi Tenor, który rzeczywiście ma ten sam materiał. 	!	!	!	!	!
1.G	Do-	1G	Vos	.	.	0g	-ci	1.b-	.	.	.
.	.	1d	.	1B-	-um	.	.	.	.	.	.
2G\	-mi-	.	.	.	.	.	.	2g\	-per	.	.
*	*	*Xlig	*	*	*Xij	*	*	*	*	*	*
=14-	=14-	=14-	=14-	=14-	=14-	=14-	=14-	=14-	=14-	=14-	=14-
*	*	*lig	*	*	*	*	*	*	*	*	*ij
2D/	-nus	1d	a-	00r	.	0a	me-	1f	vos	2r	.
*	*ij	*	*	*	*	*	*	*	*	*	*
2.d\	Di-	.	.	.	.	.	.	.	.	1dd	Di-
.	.	1f	.	.	.	.	.	1r	.	.	.
8c\	.	.	.	.	.	.	.	.	.	.	.
8B-\	.	.	.	.	.	.	.	.	.	.	.
2A\	.	.	.	.	.	.	.	.	.	2cc\	.
*	*	*Xlig	*	*	*	*	*	*	*	*	*
=15-	=15-	=15-	=15-	=15-	=15-	=15-	=15-	=15-	=15-	=15-	=15-
1B-	-cit	1d	-mi-	.	.	0f	-i	0r	.	2b-/	-cit
.	.	.	.	.	.	.	.	.	.	2b-/	Do-
2.F/	Do-	1c	-ci	.	.	.	.	.	.	4a/	-mi-
.	.	.	.	.	.	.	.	.	.	4b-/	.
.	.	.	.	.	.	.	.	.	.	4cc\	.
4A\	.	.	.	.	.	.	.	.	.	4a/	.
*custos:G	*	*	*	*	*	*	*	*	*	*custos:b-	*
!LO:LB:g=original	!	!	!	!	!	!	!	!	!	!LO:LB:g=original	!
=16-	=16-	=16-	=16-	=16-	=16-	=16-	=16-	=16-	=16-	=16-	=16-
*	*	*	*	*	*	*lig	*	*	*	*	*
1.G	.	1d	me-	00r	.	0g	eſ-	2r	.	2b-/	-nus
*	*	*	*	*	*	*	*	*	*	*	*Xij
.	.	.	.	.	.	.	.	1b-	Di-	4g/	Do-
.	.	.	.	.	.	.	.	.	.	4a/	.
.	.	1B-	-i	.	.	.	.	.	.	4b-/	.
.	.	.	.	.	.	.	.	.	.	4cc\	.
2G\	-mi-	.	.	.	.	.	.	2b-\	-cit	4dd\	.
.	.	.	.	.	.	.	.	.	.	4eeny\	.
=17-	=17-	=17-	=17-	=17-	=17-	=17-	=17-	=17-	=17-	=17-	=17-
*	*	*lig	*	*	*	*	*	*	*	*	*
1F	-nus	1c	eſ-	.	.	0a	.	2a\	Do-	1.ff	.
.	.	.	.	.	.	.	.	2f\	-mi-	.	.
2r	.	1d	.	.	.	.	.	0f	-nus	.	.
*	*Xij	*	*	*	*	*	*	*	*	*	*
1D/	Di-	.	.	.	.	.	.	.	.	2ff\	-mi-
*	*	*Xlig	*	*	*	*Xlig	*	*	*	*	*
=18-	=18-	=18-	=18-	=18-	=18-	=18-	=18-	=18-	=18-	=18-	=18-
.	.	1d	-tis	2r	.	0a	-tis	.	.	2dd\	-nus
2D/	-cit	.	.	1f	Di-	.	.	.	.	1dd	Di-
*lig	*	*custos:B-	*	*	*	*	*	*	*	*	*
!	!	!LO:LB:g=original	!	!	!	!	!	!	!	!	!
1F	Do-	1r	.	.	.	.	.	1r	.	.	.
.	.	.	.	2f\	-cit	.	.	.	.	1cc\	-cit
=19-	=19-	=19-	=19-	=19-	=19-	=19-	=19-	=19-	=19-	=19-	=19-
*col	*	*	*	*	*	*	*	*	*	*	*
2.G\	.	1B-	ſi	2d\	Do-	0r	.	0r	.	.	.
.	.	.	.	2e\	-mi-	.	.	.	.	1b-	Do-
*Xlig	*	*	*	*	*	*	*	*	*	*	*
4G\	-mi-	.	.	.	.	.	.	.	.	.	.
*Xcol	*	*	*	*	*	*	*	*	*	*	*
1F	-nus	1c	fe-	2.f\	-nus	.	.	.	.	.	.
.	.	.	.	.	.	.	.	.	.	2a/	-mi-
.	.	.	.	4e\	.	.	.	.	.	.	.
*	*	*	*	*	*	*custos:f	*	*	*	*	*
!	!	!	!	!	!	!LO:LB:g=original	!	!	!	!	!
=20-	=20-	=20-	=20-	=20-	=20-	=20-	=20-	=20-	=20-	=20-	=20-
*	*	*lig	*	*	*	*	*	*	*ij	*	*
00r	.	1B-	-ce-	4d\	.	0f	ſi	2r	.	1b-	-nus
.	.	.	.	4c/	.	.	.	.	.	.	.
.	.	.	.	1d	.	.	.	2f\	Di-	.	.
*	*	*	*	*	*	*	*	*lig	*	*	*
.	.	1A	.	.	.	.	.	1a	-cit	1r	.
*	*	*	*	*custos:c	*ij	*	*	*	*	*	*
!	!	!	!	!LO:LB:g=original	!	!	!	!	!	!	!
.	.	.	.	2c/	Di-	.	.	.	.	.	.
=21-	=21-	=21-	=21-	=21-	=21-	=21-	=21-	=21-	=21-	=21-	=21-
*	*	*col	*	*lig	*	*	*	*	*	*	*
.	.	1.G	.	1d	-cit	0g	fe-	1.b-	.	00r	.
.	.	.	.	1e-X	.	.	.	.	.	.	.
*	*	*Xlig	*	*Xlig	*	*	*	*Xlig	*	*	*
.	.	2A/	.	.	.	.	.	2.cc\	Do-	.	.
*	*	*Xcol	*	*	*	*	*	*	*	*	*
=22-	=22-	=22-	=22-	=22-	=22-	=22-	=22-	=22-	=22-	=22-	=22-
*	*	*	*	*	*	*lig	*	*	*	*	*
1r	.	2B-/	.	2.d\	Do-	0f	-ce-	.	.	.	.
.	.	.	.	.	.	.	.	4b-\	.	.	.
*	*	*	*	*	*	*	*	*custos:b-	*	*	*
!	!	!	!	!	!	!	!	!LO:LB:g=original	!	!	!
.	.	2B-/	-ri-	.	.	.	.	1b-	.	.	.
.	.	.	.	8c/	.	.	.	.	.	.	.
.	.	.	.	8B-/	.	.	.	.	.	.	.
2r	.	1F	-tis	1.c	.	.	.	.	.	.	.
2F/	et	.	.	.	.	.	.	2a\	-mi-	.	.
=23-	=23-	=23-	=23-	=23-	=23-	=23-	=23-	=23-	=23-	=23-	=23-
2.C/	diſ-	00r	.	.	.	0e	.	1g	-nus	1r	.
.	.	.	.	2c/	-mi-	.	.	.	.	.	.
4D/	-ci-	.	.	.	.	.	.	.	.	.	.
2E/	-te	.	.	1c	-nus	.	.	2r	.	2r	.
*	*	*	*	*	*Xij	*	*	*	*Xij	*	*
2C/	a	.	.	.	.	.	.	2g\	et	2cc\	et
*	*	*	*	*	*	*Xlig	*	*	*	*	*
=24-	=24-	=24-	=24-	=24-	=24-	=24-	=24-	=24-	=24-	=24-	=24-
0G	me	.	.	0r	.	0.d	.	2.g\	diſ-	2.b-/	diſ-
.	.	.	.	.	.	.	.	4a\	-ci-	4cc\	-ci-
.	.	.	.	.	.	.	.	2b-\	-te	2dd\	-te
.	.	.	.	.	.	.	.	2.g\	a	2b-/	a
=25-	=25-	=25-	=25-	=25-	=25-	=25-	=25-	=25-	=25-	=25-	=25-
2r	.	00r	.	1r	.	.	.	.	.	2a/	me
.	.	.	.	.	.	.	.	8f\	.	.	.
.	.	.	.	.	.	.	.	8e\	.	.	.
*	*ij	*	*	*	*	*	*	*	*	*	*ij
2d\	et	.	.	.	.	.	.	2f\	.	2a/	et
*	*	*	*	*	*	*	*	*	*	*custos:cc	*
!	!	!	!	!	!	!	!	!	!	!LO:LB:g=original	!
2.c\	diſ-	.	.	2r	.	1e	.	2g\	me	1.cc	diſ-
*	*	*	*	*	*	*	*	*	*ij	*	*
.	.	.	.	2c/	et	.	.	2g\	et	.	.
4B-\	-ci-	.	.	.	.	.	.	.	.	.	.
=26-	=26-	=26-	=26-	=26-	=26-	=26-	=26-	=26-	=26-	=26-	=26-
2A\	-te	.	.	2c/	di-	1f	.	2a\	diſ-	.	.
2B-\	a	.	.	2d\	-ſci-	.	.	2f\	-ci-	2b-/	-ci-
1F	me	.	.	2c/	-te	1f	-ri-	2a\	-te	2a/	-te
.	.	.	.	1f\	a	.	.	2cc\	a	2a/	a
*custos:G	*Xij	*	*	*	*	*	*	*	*	*	*
!LO:LB:g=original	!	!	!	!	!	!	!	!	!	!	!
=27-	=27-	=27-	=27-	=27-	=27-	=27-	=27-	=27-	=27-	=27-	=27-
0r	.	0r	.	.	.	0c	-tis	0cc	me	2g/	me
*	*	*	*	*	*	*	*	*	*Xij	*	*Xij
.	.	.	.	4eny\	me	.	.	.	.	2.gg\	a
.	.	.	.	4d\	.	.	.	.	.	.	.
.	.	.	.	2e\	.	.	.	.	.	.	.
.	.	.	.	.	.	.	.	.	.	4ff\	.
.	.	.	.	2g\	qui-	.	.	.	.	4ee\	.
.	.	.	.	.	.	.	.	.	.	4dd\	.
=28-	=28-	=28-	=28-	=28-	=28-	=28-	=28-	=28-	=28-	=28-	=28-
1r	.	1A	quæ	2e\	-a	00r	.	2r	.	1cc	.
.	.	.	.	2f\	mi-	.	.	2a\	qui-	.	.
2r	.	1B-	præ-	1d	-tis	.	.	2f\	-a	1dd	me
2G\	aui-	.	.	.	.	.	.	1g\	mi-	.	.
=29-	=29-	=29-	=29-	=29-	=29-	=29-	=29-	=29-	=29-	=29-	=29-
2E/	-a	1c	-ci-	2r	.	.	.	.	.	2r	.
2F/	mi-	.	.	2a\	qui-	.	.	2c/	-tis	1ff	qui-
*	*	*	*	*custos:f	*	*	*	*	*	*	*
!	!	!	!	!LO:LB:g=original	!	!	!	!	!	!	!
2D/	-tis	1B-	-pi-	2f\	-a	.	.	1d	ſum	.	.
2G\	ſum	.	.	1g\	mi-	.	.	.	.	2dd\	-a
=30-	=30-	=30-	=30-	=30-	=30-	=30-	=30-	=30-	=30-	=30-	=30-
1C	et	1G	-o	.	.	00r	.	1c	et	2ee-X\	mi-
.	.	.	.	2g\	-tis	.	.	.	.	2ee-\	-tis
*	*	*	*	*	*	*	*	*custos:d	*	*	*
!	!	!	!	!	!	!	!	!LO:LB:g=original	!	!	!
2.G\	hu-	1B-	vo-	2g\	ſum	.	.	1.d	hu-	0dd	ſum
.	.	.	.	2g\	et	.	.	.	.	.	.
4G\	-mi-	.	.	.	.	.	.	.	.	.	.
=31-	=31-	=31-	=31-	=31-	=31-	=31-	=31-	=31-	=31-	=31-	=31-
*	*	*lig	*	*	*	*	*	*	*	*	*ij
1F#X	-lis	1A	-bis	2.a\	hu-	.	.	.	.	.	.
.	.	.	.	.	.	.	.	2d/	-mi-	.	.
.	.	.	.	4a\	-mi-	.	.	.	.	.	.
1G	cor-	1B-	.	1d	-lis	.	.	2d/	-lis	2r	.
.	.	.	.	.	.	.	.	2g\	cor-	1gg\	qui-
*	*	*Xlig	*	*	*	*	*	*	*	*	*
*	*	*custos:c	*	*	*	*	*	*	*	*	*
!	!	!LO:LB:g=original	!	!	!	!	!	!	!	!	!
=32-	=32-	=32-	=32-	=32-	=32-	=32-	=32-	=32-	=32-	=32-	=32-
1C	-de	00r	.	2r	.	00r	.	2e/	-de	.	.
.	.	.	.	2c/	qui-	.	.	2g\	qui-	2eeny\	-a
2r	.	.	.	2A/	-a	.	.	2a\	-a	2ff\	mi-
2G\	qui-	.	.	1B-/	mi-	.	.	1g\	mi-	2dd\	-tis
=33-	=33-	=33-	=33-	=33-	=33-	=33-	=33-	=33-	=33-	=33-	=33-
2E/	-a	.	.	.	.	.	.	.	.	0cc	ſum
1Fny	mi-	.	.	2A/	-tis	.	.	2f\	-tis	.	.
.	.	.	.	2F/	ſum	.	.	2a\	ſum	.	.
2E/	-tis	.	.	2G/	et	.	.	2g\	et	.	.
=34-	=34-	=34-	=34-	=34-	=34-	=34-	=34-	=34-	=34-	=34-	=34-
*	*	*	*	*	*	*	*	*lig	*	*	*Xij
1D	ſum	1r	.	2A/	hu-	00r	.	1f	hu-	2r	.
.	.	.	.	4G/	.	.	.	.	.	1ff	qui-
.	.	.	.	4F/	.	.	.	.	.	.	.
*	*	*	*	*	*	*	*	*col	*	*	*
1C	et	0c	Di-	2G/	.	.	.	2.cc\	.	.	.
.	.	.	.	2G/	-mi-	.	.	.	.	2ee\	-a
*	*	*	*	*	*	*	*	*Xlig	*	*	*
.	.	.	.	.	.	.	.	4cc\	-mi-	.	.
*	*	*	*	*	*	*	*	*Xcol	*	*custos:ff	*
!	!	!	!	!	!	!	!	!	!	!LO:LB:g=original	!
=35-	=35-	=35-	=35-	=35-	=35-	=35-	=35-	=35-	=35-	=35-	=35-
2.F/	hu-	.	.	1A	-lis	.	.	2a\	-lis	2ff\	mi-
.	.	.	.	.	.	.	.	2.f\	cor-	2cc\	-tis
4F/	-mi-	.	.	.	.	.	.	.	.	.	.
*	*	*lig	*	*	*	*	*	*	*	*	*
2.BB-/	-lis	1B-	-cit	1d	cor-	.	.	.	.	1.dd	ſum
.	.	.	.	.	.	.	.	4d/	.	.	.
.	.	.	.	.	.	.	.	1g\	.	.	.
4C/	.	.	.	.	.	.	.	.	.	.	.
*custos:D	*	*	*	*	*	*	*	*	*	*	*
!LO:LB:g=original	!	!	!	!	!	!	!	!	!	!	!
=36-	=36-	=36-	=36-	=36-	=36-	=36-	=36-	=36-	=36-	=36-	=36-
1D	.	1A	.	2d\	-de	00r	.	.	.	.	.
.	.	.	.	1d	et	.	.	2f#X\	.	2a/	et
*	*	*Xlig	*	*	*	*	*	*	*	*	*
!	!	!	!	!	!	!	!	!	!	!LO:N:acc=#	!
1.G	cor-	1.G	Do-	.	.	.	.	0g	-de	2.bn/	hu-
*	*	*	*	*custos:d	*	*	*	*	*	*	*
!	!	!	!	!LO:LB:g=original	!	!	!	!	!	!	!
.	.	.	.	2.d\	hu-	.	.	.	.	.	.
.	.	.	.	.	.	.	.	.	.	4cc\	-mi-
=37-	=37-	=37-	=37-	=37-	=37-	=37-	=37-	=37-	=37-	=37-	=37-
.	-de	.	.	.	.	.	.	.	.	2dd\	-li
.	.	.	.	4B-/	-mi-	.	.	.	.	.	.
2C/	.	2G/	-mi-	2e-X\	-lis	.	.	.	.	1cc	cor-
1r	.	0G	-nus	1d	cor-	.	.	2r	.	.	.
!	!	!	!	!	!	!	!	!	!	!LO:N:acc=#	!
.	.	.	.	.	.	.	.	1g\	Iu-	2bn/	.
=38-	=38-	=38-	=38-	=38-	=38-	=38-	=38-	=38-	=38-	=38-	=38-
1.C	Iu-	.	.	2c/	-de	0e	quæ	.	.	1cc	-de
.	.	.	.	2G/	Iu-	.	.	2g\	-gum	.	.
.	.	00r	.	2G/	-gum	.	.	1cc	e-	2r	.
2C/	-gum	.	.	1c\	e-	.	.	.	.	1cc\	Iu-
=39-	=39-	=39-	=39-	=39-	=39-	=39-	=39-	=39-	=39-	=39-	=39-
1F	e-	.	.	.	.	0f	præ-	1a	-nim	.	.
.	.	.	.	1A	-nim	.	.	.	.	2cc\	-gum
*	*	*	*	*	*	*	*	*custos:a	*	*	*
!	!	!	!	!	!	!	!	!LO:LB:g=original	!	!	!
1D	-nim	.	.	.	.	.	.	1a	me-	1ff	e-
.	.	.	.	2d\	me-	.	.	.	.	.	.
=40-	=40-	=40-	=40-	=40-	=40-	=40-	=40-	=40-	=40-	=40-	=40-
2.G\	me-	.	.	1B-	-um	0g	-ci-	1d	-um	2dd\	-nim
*	*	*	*	*	*	*	*	*	*	*lig	*
.	.	.	.	.	.	.	.	.	.	1b-y	me-
4F/	.	.	.	.	.	.	.	.	.	.	.
*	*	*lig	*	*	*	*	*	*	*	*	*
1E-X	.	1G	Vos	1r	.	.	.	0r	.	.	.
.	.	.	.	.	.	.	.	.	.	1cc\	.
*	*	*	*	*	*	*	*	*	*	*Xlig	*
=41-	=41-	=41-	=41-	=41-	=41-	=41-	=41-	=41-	=41-	=41-	=41-
1D	-um	1d	.	00r	.	0f	-pi-	.	.	.	.
.	.	.	.	.	.	.	.	.	.	2b-/	-um
*	*	*Xlig	*	*	*	*	*	*	*	*	*
*	*	*lig	*	*	*	*	*	*	*	*	*
2r	.	1d	a-	.	.	.	.	2r	.	2a/	ſu-
2d\	ſua-	.	.	.	.	.	.	2a\	ſu-	2.ff\	-a-
*	*	*	*	*	*	*custos:d	*	*	*	*	*
!	!	!	!	!	!	!LO:LB:g=original	!	!	!	!	!
=42-	=42-	=42-	=42-	=42-	=42-	=42-	=42-	=42-	=42-	=42-	=42-
1.B-	-ue	1f	.	.	.	0d	-o	2.b-\	-a-	.	.
.	.	.	.	.	.	.	.	.	.	4ee\	.
.	.	.	.	.	.	.	.	.	.	2.dd\	.
.	.	.	.	.	.	.	.	8a\	.	.	.
.	.	.	.	.	.	.	.	8g\	.	.	.
*	*	*Xlig	*	*	*	*	*	*	*	*	*
.	.	1d	-mi-	.	.	.	.	2fny\	.	.	.
.	.	.	.	.	.	.	.	.	.	4cc\	.
2B-\	.	.	.	.	.	.	.	2f\	-ue	1b-\	.
=43-	=43-	=43-	=43-	=43-	=43-	=43-	=43-	=43-	=43-	=43-	=43-
1F	eſt	1c	-ci	2r	.	0f	vo-	1cc	eſt	.	.
.	.	.	.	2F/	ſua-	.	.	.	.	2a/	-ue
*	*	*	*	*	*	*	*	*	*	*custos:b-	*
!	!	!	!	!	!	!	!	!	!	!LO:LB:g=original	!
1r	.	1d	me-	1B-	-ue	.	.	1r	.	1b-	eſt
=44-	=44-	=44-	=44-	=44-	=44-	=44-	=44-	=44-	=44-	=44-	=44-
*	*	*	*	*	*	*lig	*	*	*	*	*
0r	.	1B-	-i	1G	.	0e	-bis	0r	.	1r	.
*	*	*lig	*	*	*	*	*	*	*	*	*
.	.	1c	eſ-	1A	eſt	.	.	.	.	2r	.
.	.	.	.	.	.	.	.	.	.	1a/	Iu-
=45-	=45-	=45-	=45-	=45-	=45-	=45-	=45-	=45-	=45-	=45-	=45-
1.D	Iu-	1d	.	1r	.	0f	.	1r	.	.	.
.	.	.	.	.	.	.	.	.	.	2a/	-gum
*	*	*Xlig	*	*	*	*Xlig	*	*	*	*	*
.	.	1d	-tis	2r	.	.	.	2r	.	1.dd	e-
2D/	-gum	.	.	2a\	ſua-	.	.	1d/	Iu-	.	.
=46-	=46-	=46-	=46-	=46-	=46-	=46-	=46-	=46-	=46-	=46-	=46-
1G	e-	1B-	ſi	2.g\	.	00r	.	.	.	.	.
.	.	.	.	.	.	.	.	2d/	-gum	1g	-nim
.	.	.	.	4f\	.	.	.	.	.	.	.
1C	-nim	1c	fe-	2e-X\	.	.	.	1.g	e-	.	.
.	.	.	.	2e-\	-ue	.	.	.	.	1gg\	me-
*custos:G	*	*	*	*custos:e-	*	*	*	*	*	*	*
!LO:LB:g=original	!	!	!	!LO:LB:g=original	!	!	!	!	!	!	!
=47-	=47-	=47-	=47-	=47-	=47-	=47-	=47-	=47-	=47-	=47-	=47-
*	*	*lig	*	*	*	*	*	*	*	*	*
1G	me-	1B-	-ce-	1d	eſt	.	.	.	.	.	.
.	.	.	.	.	.	.	.	2g\	-nim	1dd	-um
*	*	*	*	*	*ij	*	*	*	*	*	*
2D/	-um	1A	.	1d	ſua-	.	.	2f\	me-	.	.
2D/	ſua-	.	.	.	.	.	.	2d/	-um	2ff\	ſua-
=48-	=48-	=48-	=48-	=48-	=48-	=48-	=48-	=48-	=48-	=48-	=48-
*	*	*col	*	*lig	*	*	*	*	*	*	*
1E-X	.	1.G	.	1B-	.	00r	.	2g\	ſua-	0ee-X	-ue
.	.	.	.	.	.	.	.	1g	-ue	.	.
1C	-ue	.	.	1c	.	.	.	.	.	.	.
*	*	*Xlig	*	*Xlig	*	*	*	*	*	*	*
.	.	2A/	.	.	.	.	.	2c/	.	.	.
*	*	*Xcol	*	*	*	*	*	*	*	*	*
=49-	=49-	=49-	=49-	=49-	=49-	=49-	=49-	=49-	=49-	=49-	=49-
1BB-	eſt	2B-/	.	2.d\	.	.	.	2f\	eſt	1dd	.
.	.	2B-/	-ri-	.	.	.	.	2b-\	ſua-	.	.
.	.	.	.	4eny\	.	.	.	.	.	.	.
1r	.	1F	-tis	4f\	.	.	.	2.a\	.	0cc	eſt
.	.	.	.	4g\	.	.	.	.	.	.	.
.	.	.	.	1a\	.	.	.	.	.	.	.
.	.	.	.	.	.	.	.	8g\	.	.	.
.	.	.	.	.	.	.	.	8f\	.	.	.
*	*	*custos:A	*	*	*	*	*	*custos:e	*	*	*
!	!	!LO:LB:g=original	!	!	!	!	!	!LO:LB:g=original	!	!	!
=50-	=50-	=50-	=50-	=50-	=50-	=50-	=50-	=50-	=50-	=50-	=50-
0r	.	1A	quæ	.	.	0r	.	2e/	.	.	.
*	*	*	*	*	*	*	*	*lig	*	*	*
.	.	.	.	2a\	-ue	.	.	1f	.	.	.
.	.	1B-	præ-	1d	eſt	.	.	.	.	2r	.
.	.	.	.	.	.	.	.	1g\	.	2dd\	et
*	*	*	*	*	*Xij	*	*	*Xlig	*	*	*
=51-	=51-	=51-	=51-	=51-	=51-	=51-	=51-	=51-	=51-	=51-	=51-
2r	.	1c	-ci-	1r	.	00g	Di-	.	.	1ee-X	o-
2C/	et	.	.	.	.	.	.	2c/	-ue	.	.
1G	o-	1B-	-pi-	2r	.	.	.	1d	eſt	2dd\	-nus
.	.	.	.	2d\	et	.	.	.	.	1dd\	me-
=52-	=52-	=52-	=52-	=52-	=52-	=52-	=52-	=52-	=52-	=52-	=52-
1C	-nus	1G	-o	1e-X	o-	.	.	1r	.	.	.
.	.	.	.	.	.	.	.	.	.	2cc\	-um
1G	me-	1B-	vo-	2d\	-nus	.	.	2r	.	1dd	le-
.	.	.	.	1d\	me-	.	.	2d/	et	.	.
=53-	=53-	=53-	=53-	=53-	=53-	=53-	=53-	=53-	=53-	=53-	=53-
*	*	*lig	*	*	*	*lig	*	*	*	*	*
0D	-um	1A	-bis	.	.	0f	-cit	2.a\	o-	1dd	-ue
.	.	.	.	2d\	-um	.	.	.	.	.	.
.	.	.	.	.	.	.	.	4g\	.	.	.
*	*	*	*	*lig	*	*	*	*	*	*	*
.	.	1B-	.	1d	le-	.	.	2f\	.	1r	.
.	.	.	.	.	.	.	.	2d/	-uns	.	.
*	*	*Xlig	*	*	*	*	*	*	*	*	*
=54-	=54-	=54-	=54-	=54-	=54-	=54-	=54-	=54-	=54-	=54-	=54-
*lig	*	*	*	*col	*	*	*	*	*	*	*
0C	le-	0c	Di-	2.G/	.	0e	.	1g	me-	2r	.
.	.	.	.	.	.	.	.	.	.	2cc\	et
*	*	*	*	*Xlig	*	*Xlig	*	*	*	*	*
.	.	.	.	8A/	.	.	.	.	.	.	.
.	.	.	.	8B-/	.	.	.	.	.	.	.
*	*	*	*	*	*	*	*	*	*	*custos:cc	*
!	!	!	!	!	!	!	!	!	!	!LO:LB:g=original	!
.	.	.	.	4c/	.	.	.	2g\	-um	2cc\	o-
*	*	*	*	*Xcol	*	*	*	*	*	*	*
.	.	.	.	4B-/	.	.	.	.	.	.	.
*	*	*	*	*	*	*	*	*lig	*	*	*
.	.	.	.	4A/	.	.	.	1a\	le-	2eeny\	-nus
.	.	.	.	4G/	.	.	.	.	.	.	.
*	*	*	*	*custos:F	*	*	*	*	*	*	*
!	!	!	!	!LO:LB:g=original	!	!	!	!	!	!	!
=55-	=55-	=55-	=55-	=55-	=55-	=55-	=55-	=55-	=55-	=55-	=55-
*	*	*lig	*	*	*	*	*	*	*	*	*
0D	.	1B-	-cit	2F/	.	0.d	Do-	.	.	2ff\	me-
.	.	.	.	2G/	.	.	.	1g	.	2dd\	-um
.	.	1A	.	1A	.	.	.	.	.	0dd	le-
*	*	*	*	*	*	*	*	*Xlig	*	*	*
.	.	.	.	.	.	.	.	2f#X\	.	.	.
*Xlig	*	*Xlig	*	*	*	*	*	*	*	*	*
=56-	=56-	=56-	=56-	=56-	=56-	=56-	=56-	=56-	=56-	=56-	=56-
!	!	!	!	!LO:N:acc=#	!	!	!	!	!	!	!
00G	-ue.	1.G	Do-	00Bn	-ue.	.	.	00g	-ue.	.	.
!	!	!	!	!	!	!	!	!	!	!LO:N:vis=00	!
.	.	.	.	.	.	1d	-mi-	.	.	0.dd	-ue.
.	.	2G/	-mi-	.	.	.	.	.	.	.	.
=57-	=57-	=57-	=57-	=57-	=57-	=57-	=57-	=57-	=57-	=57-	=57-
!	!	!LO:N:vis=00	!	!	!	!LO:N:vis=00	!	!	!	!	!
.	.	0G	-nus.	.	.	0d	-nus.	.	.	.	.
==	==	==	==	==	==	==	==	==	==	==	==
*-	*-	*-	*-	*-	*-	*-	*-	*-	*-	*-	*-
!!!system-decoration: [(s1,s2,s3,s4,s5,s6)]
!!!ENC: Mateusz Solarz
!!!END: 2022-07-13
!!!ENC: Natalia Wrzos
!!!END: 2022-08-10
